X: 2639
T:Melbourne Waltz. HSJJ.086
M:3/8
L:1/16
Q:40
S:HSJ Jackson,Wyresdale,Lancs.1823
R:Waltz
O:England
A:Lancashire
H:1823
Z:Chris Partington.
K:F
c2|.f2.f2 eg|fac2 d-e|(fedcde)|fac2 BA|G2G2G2|g4f2|(fedcde)|f4|!
|Ac|B4GB|A4(3cde|fefcAF|c4Ac|B4GB|A3fed|c3Ged|c4|!
|c2|b2 (c/d/e/f/) g2|a2 (3cde f2|g4f2|eg c2c2|b2 (c/d/e/f/) g2|a2 (3cde
f2|g2f2e2|f4|]
